svgs/sharp-regular/folder-user.svg

<svg xmlns="http://www.w3.org/2000/svg" viewBox="0 0 512 512"><!--! Font Awesome Pro 6.6.0 by @fontawesome - https://fontawesome.com License - https://fontawesome.com/license (Commercial License) Copyright 2024 Fonticons, Inc. --><path d="M224 32l48 64 192 0 48 0 0 48 0 288 0 48-48 0L48 480 0 480l0-48L0 80 0 32l48 0 176 0zm48 112l-24 0-14.4-19.2L200 80 48 80l0 352 101.3 0L176 352l160 0 26.7 80L464 432l0-288-192 0zM192 256a64 64 0 1 1 128 0 64 64 0 1 1 -128 0z"/></svg>

<svg xmlns="http://www.w3.org/2000/svg" viewBox="0 0 512 512"><!--! Font Awesome Pro 6.4.2 by @fontawesome - https://fontawesome.com License - https://fontawesome.com/license (Commercial License) Copyright 2023 Fonticons, Inc. --><path d="M224 32l48 64H464h48v48V432v48H464 48 0V432 80 32H48 224zm48 112H248l-14.4-19.2L200 80H48V432H149.3L176 352H336l26.7 80H464V144H272zM192 256a64 64 0 1 1 128 0 64 64 0 1 1 -128 0z"/></svg>
